brandFactory_export/2.Regular/Cartera _2Regular.svg

<?xml version="1.0" encoding="UTF-8"?>
<svg width="24px" height="24px" viewBox="0 0 24 24" version="1.1" xmlns="http://www.w3.org/2000/svg" xmlns:xlink="http://www.w3.org/1999/xlink">
    <title>2.Regular/Cartera _2Regular</title>
    <g id="Symbols" stroke="none" stroke-width="1" fill="none" fill-rule="evenodd">
        <g id="2.Regular/Cartera-_2Regular" fill="#5CB615" fill-rule="nonzero">
            <path d="M22.1747899,15.9058824 L22.1747899,12.4403361 C22.1747899,12.2857143 22.0537815,12.1647059 21.9058824,12.1647059 L12.3428571,12.1647059 C11.3310924,12.1647059 10.5109244,13.0084034 10.5109244,14.0436975 L10.5109244,14.2991597 C10.5109244,15.3344538 11.3344538,16.1781513 12.3428571,16.1781513 L21.9058824,16.1781513 C22.0537815,16.1815126 22.1747899,16.0571429 22.1747899,15.9058824 Z M20.3529412,19.589916 L20.3495798,17.6705882 L12.3428571,17.6705882 C10.5344538,17.6705882 9.05882353,16.1579832 9.05882353,14.302521 L9.05882353,14.0470588 C9.05882353,12.1882353 10.5310924,10.6789916 12.3428571,10.6789916 L20.3327731,10.6789916 L20.3294118,8.88067227 C20.3563025,8.33277311 20.2352941,7.91932773 19.9798319,7.63697479 C19.7210084,7.3512605 19.3243697,7.2 18.8369748,7.19663866 L2.97478992,7.2 L2.97478992,7.18991597 C2.4302521,7.18991597 1.91260504,7.02857143 1.45546218,6.74957983 L1.45546218,19.4756303 C1.42857143,20.0134454 1.54957983,20.4268908 1.80840336,20.7058824 C2.07058824,20.994958 2.48403361,21.1529412 2.97478992,21.1563025 L18.8369748,21.1529412 C19.2436975,21.1529412 19.6235294,20.9915966 19.9092437,20.6957983 C20.194958,20.4 20.3529412,20.0067227 20.3529412,19.589916 Z M1.45546218,4.09747899 L1.45546218,4.13781513 C1.45546218,4.51764706 1.59327731,4.87731092 1.83865546,5.16302521 C1.87226891,4.19159664 2.65882353,3.40840336 3.6302521,3.40840336 L17.102521,2.44033613 L17.102521,1.54621849 L3.02184874,2.53781513 C2.56806723,2.54117647 2.18487395,2.70252101 1.89915966,2.99495798 C1.61344538,3.2907563 1.45546218,3.68067227 1.45546218,4.09747899 L1.45546218,4.09747899 Z M17.8252101,3.88235294 L3.68067227,4.89747899 C3.43865546,4.90084034 3.28067227,5.04537815 3.28067227,5.22352941 L3.28067227,5.6302521 C3.28067227,5.65378151 3.27058824,5.67731092 3.26722689,5.70084034 L18.5210084,5.70420168 L18.5210084,4.18487395 C18.5210084,4.00672269 18.3630252,3.85882353 18.1714286,3.85882353 L17.8285714,3.88235294 L17.8252101,3.88235294 L17.8252101,3.88235294 Z M21.9058824,10.6756303 C22.8537815,10.6756303 23.6235294,11.4655462 23.6235294,12.4403361 L23.6235294,15.9058824 C23.6235294,16.8773109 22.8504202,17.6705882 21.9058824,17.6705882 L21.8016807,17.6705882 L21.805042,19.589916 C21.805042,20.4033613 21.4991597,21.1697479 20.9378151,21.7445378 C20.3764706,22.3226891 19.6302521,22.6386555 18.8369748,22.6386555 L2.96806723,22.6420168 C2.07394958,22.6352941 1.28739496,22.3058824 0.752941176,21.7210084 C0.218487395,21.1361345 -0.0403361345,20.3462185 0.00672268908,19.4319328 L0.00672268908,4.09747899 C0.00672268908,3.28403361 0.315966387,2.51764706 0.87394958,1.94285714 C1.43529412,1.36470588 2.18151261,1.0487395 2.97478992,1.0487395 L17.7781513,0.00336134454 C17.9932773,-0.00336134454 18.1781513,0.0605042017 18.3226891,0.201680672 C18.4705882,0.342857143 18.5512605,0.537815126 18.5512605,0.746218487 L18.5512605,2.42016807 C19.3781513,2.60840336 19.9731092,3.32436975 19.9731092,4.18151261 L19.9731092,5.91260504 C20.3831933,6.06722689 20.7462185,6.29915966 21.0352941,6.61176471 C21.5697479,7.19663866 21.8252101,7.98991597 21.7781513,8.91428571 L21.7815126,10.6756303 L21.9058824,10.6756303 Z M12.5714286,13.0722689 C13.2168067,13.0722689 13.7411765,13.610084 13.7411765,14.2722689 C13.7411765,14.9344538 13.2168067,15.4722689 12.5714286,15.4722689 C11.9260504,15.4722689 11.405042,14.9344538 11.405042,14.2722689 C11.405042,13.610084 11.9260504,13.0722689 12.5714286,13.0722689 Z" id="Cartera-_2Regular"></path>
        </g>
    </g>
</svg>

<svg width="24" height="24" viewBox="0 0 24 24" xmlns="http://www.w3.org/2000/svg"><path d="M22.175 15.906V12.44a.271.271 0 00-.27-.275h-9.562c-1.012 0-1.832.843-1.832 1.879v.255c0 1.035.823 1.88 1.832 1.88h9.563a.268.268 0 00.269-.273zm-1.822 3.684l-.003-1.92h-8.007c-1.809 0-3.284-1.512-3.284-3.367v-.256c0-1.859 1.472-3.368 3.284-3.368h7.99l-.004-1.798c.027-.548-.094-.962-.35-1.244-.258-.286-.655-.437-1.142-.44L2.975 7.2v-.01a2.908 2.908 0 01-1.52-.44v12.726c-.026.537.095.95.353 1.23.263.289.676.447 1.167.45l15.862-.003c.407 0 .787-.161 1.072-.457.286-.296.444-.69.444-1.106zM1.455 4.097v.04c0 .38.138.74.384 1.026.033-.971.82-1.755 1.791-1.755l13.473-.968v-.894l-14.081.992c-.454.003-.837.165-1.123.457a1.576 1.576 0 00-.444 1.102zm16.37-.215L3.681 4.897c-.242.004-.4.148-.4.327v.406c0 .024-.01.047-.014.07l15.254.004v-1.52c0-.177-.158-.325-.35-.325l-.342.023h-.004zm4.08 6.794c.949 0 1.719.79 1.719 1.764v3.466c0 .971-.774 1.765-1.718 1.765h-.104l.003 1.919c0 .813-.306 1.58-.867 2.155a2.907 2.907 0 01-2.101.894l-15.869.003c-.894-.007-1.68-.336-2.215-.921-.535-.585-.793-1.375-.746-2.29V4.098c0-.813.309-1.58.867-2.154a2.907 2.907 0 012.1-.894L17.779.003c.215-.006.4.058.545.199a.746.746 0 01.228.544V2.42a1.805 1.805 0 011.422 1.762v1.73c.41.155.773.387 1.062.7.535.585.79 1.378.743 2.302l.004 1.762h.124zm-9.334 2.396c.646 0 1.17.538 1.17 1.2 0 .662-.524 1.2-1.17 1.2-.645 0-1.166-.538-1.166-1.2 0-.662.521-1.2 1.166-1.2z" fill="#5CB615" fill-rule="nonzero"/></svg>
